X: 62
T:Spanish Ladies
M:4/4
L:1/4
S:AB:||B
K:D
|:"D"FA"A"A B/-c/|"D"ddd e/-f/|"G"g/f/e "D"f/e/d|"A"B A A/B/A/G/|
"D"FA"A"AB/-c/|"D"ddde/-f/|"G"g/f/e "D"f/e/d|"A"BA A3/2 e/|!
"D"faaf|"G"edd>e|"D"faaf|"A"ede>e|"D"f aa f|"G"ed"D"de/-f/|
"G"g/f/e"D"f/e/d|"A"BAA>:||!
e/|"D"faaf|"G"edd>e|"D"faaf|"A"ede>e|"D"f aa f|"G"ed"D"de/-f/|
"G"g/f/e"D"f/e/d|"A"BAA>|
% <A name="D1X063">
